X:4535
T:Duke of Yorks New March. TLY.077
T:..TLY.077
M:4/4
L:1/8
Q:200
S:Wm.Tildesley,Swinton,Lancs.1860s.
R:March
O:England.
A:Lancashire.
N:Forte marked in 2nd beat, 8th. bar, piano marked in second 10th. barbea
H:1860.
Z:vmp.Taz Tarry.
K:D
a>a|f2 a>a f2 a>a| {g}gf/g/ e2 z2 g>g| e2 g>g e2 g>g| {g} fe/f/ d2 z
2 D>F|!
 A2 F>A d2 A>d|
 f2 d4 a>d'| a2 f>a g2 e>a| f2 F/G/A/F/ A2 D>F|!
 A2 F>A d2 A>d| f2 d4 a>d'|
 a2 f>a g2 e>a|d2 d>d d2e2|!
 f2 z2 f/-g/ a>a {b}gg/f/| e2 e>e e2 f2| g2 z e/f/ gg {a}gf/e/|
 f2 a>a a2 ag/f/|!
 b2 d'>d' d'2 {e'}d'c'/b/| a2 a>a a2 {b}ag/f/| ee/e/ ff/f/ gg/g/ ee/e/|
f2 z2z2 f>f|!
 ee/e/ ff/f/ gg/g/ ee/e/| f2 z2z2 f>f|ee/e/ ff/f/ gg/g/ ee/e/| d2 d'2 d'
2||
